X: 1
T: The Wild Colonial Boy
O: 19th C. Australia
M: 3/4
L: 1/4
K: G
   d | "G"G2B | d2d | "C"e2c | "Am"A2G | "D7"FD2 | B2A | "G"G3- |     G2 ||
|: d | "G"d2g | g2d |"Am"f2e |     A2B | "D7"c2d | f2e | "G"d3- | "D7"d2 :|
y  d | "G"G2B | d2d | "C"e2c | "Am"A2G | "D7"FD2 | B2A | "G"G3- |     G2 |]
